X:2310
T:Polska efter Zakarias Jansson
O:Dalsland, Källhult, Dalskog
R:Polska
S:Zakarias Jansson
B:[[http://www.smus.se/earkiv/fmk/browselarge.php?lang=en&katalogid=Ds+1%2C+Vr+5&bildnr=00046|SMUS - katalog Ds1, Vr5, bild 46]]
Z:Nils L
L:1/8
M:3/4
K:Em
B>^A B>^d B>d | e>^d e>g f>d | e>f g>a f>a | (3gfg e>g f>^d | 
B>^A B>^d B>d | e>^d e>g f>d | e>f g>a f>a | (3gfg e2 z2 ::
e>g b2 g>b | b>a a>g f>d | (3efg a2 f>a | (3gfg e>g f>d |
e>g b2 g>b | b>a a>g f>d | e>f g>a f>a | (3gfg e2 z2 :|
(:musicend:)

På nyckelharpa ligger den bra i Gm (första ton: D). Det verkar förekomma flera stavningar av namnet: Zakarias, Zacharias, Zackarias.
(:music:)
